X:1
T:Miner's Lifegard
M:4/4
L:1/8
K:C
 EG| E4- EC DE| D C- C4 CD| C4- CD CA,| C4- C2 G,A,| C4- C G,C D| E E- E4 EE|\
 D4- DD ED| D4- D2 EG| E4- EC DE| D C- C4 CD| C4- CD CA,| C4- C2 G,A,|\
 C4- C G,C D| E E4- EC D| E4- EC DD| C4- C2 CC| F F- F4 CD| E E- E4 EF|\
 G4- GG EC| D4- D z EG| E4- EC DE| D C- C4 CD| E4- EC DD| C6||
